src/telerik-icons/solid/borders-inside-horizontal.svg

<?xml version="1.0" encoding="utf-8"?>
<svg xmlns="http://www.w3.org/2000/svg" width="512" height="512" viewBox="0 0 512 512">
  <path d="M448 224v32H32v-32h416zM64 32H32v32h32V32zm0 96H32V96h32v32zm0 64H32v-32h32v32zm0 128H32v-32h32v32zm0 64H32v-32h32v32zm384-256h-32V96h32v32zm0 64h-32v-32h32v32zm0 128h-32v-32h32v32zm0 64h-32v-32h32v32zM128 64H96V32h32v32zm64 0h-32V32h32v32zm64 0h-32V32h32v32zm0 64h-32V96h32v32zm0 64h-32v-32h32v32zm0 128h-32v-32h32v32zm0 64h-32v-32h32v32zm0 64h-32v-32h32v32zM64 416H32v32h32v-32zm64 32H96v-32h32v32zm64 0h-32v-32h32v32zm128-32h-32v32h32v-32zm64 32h-32v-32h32v32zm64 0h-32v-32h32v32zM320 32h-32v32h32V32zm64 32h-32V32h32v32zm64 0h-32V32h32v32z"/>
</svg>

<?xml version="1.0" encoding="utf-8"?>
<!-- Generator: Adobe Illustrator 19.2.1, SVG Export Plug-In . SVG Version: 6.00 Build 0)  -->
<svg xmlns="http://www.w3.org/2000/svg" width="512" height="512" viewBox="0 0 512 512">
<path d="M448,224v32H32v-32H448z M64,32H32v32h32V32z M64,128H32V96h32V128z M64,192H32v-32h32V192z M64,320H32v-32h32V320z M64,384
	H32v-32h32V384z M448,128h-32V96h32V128z M448,192h-32v-32h32V192z M448,320h-32v-32h32V320z M448,384h-32v-32h32V384z M128,64H96
	V32h32V64z M192,64h-32V32h32V64z M256,64h-32V32h32V64z M256,128h-32V96h32V128z M256,192h-32v-32h32V192z M256,320h-32v-32h32V320
	z M256,384h-32v-32h32V384z M256,448h-32v-32h32V448z M64,416H32v32h32V416z M128,448H96v-32h32V448z M192,448h-32v-32h32V448z
	 M320,416h-32v32h32V416z M384,448h-32v-32h32V448z M448,448h-32v-32h32V448z M320,32h-32v32h32V32z M384,64h-32V32h32V64z M448,64
	h-32V32h32V64z" />
</svg>
